X: 28289
T: Mrs. Rigg
R: jig
M: 6/8
K: Gminor
D|:G2G B/c/dB|FAc fcA|GAG B/c/dB|G2d gdg|
faf dfd|cfd cAF|GAG A/B/cA|1 G3 G2D:|2 G3 G2d||
gag bag|fgf fga|gag bag|gdg gaf|
gag bag|fcf fga|gdg a^fa|g3 g2d|
gag bag|fgf fga|gag bag|f=ee fcB|
dfd Bcd|c=ef cAF|GBc d2D|G3 G2D||

